!!!COM: Masanto, Louis Arnold
!!!CDT: b.1938
!!!OTL: National Anthem, Grenada
!!!ENC: Davis, Matthew J.
!!Vocal Line Only
**kern
*clefG2
*k[f#c#]
*D:
*M4/4
=1-
1r
=2
1r
=3
1r
=4
1r
==5
4.dd
8a
4a
4d
=6
4.a
8g
4g
4f#
=7
4a
8g
8f#
4g
4e
=8
2.f#
4a
=9
8a
8g
8f#
8g
4a
4dd
=10
4.dd
8dd
4b
4a
=11
4a
4g#
4f#
4g
=12
2.a
8g
8g
=13
4f#
4g
4a
4d
=14
2.b
8a
8a
=15
4g#
8a
8a
4b
4e
=16
2.cc#
4b
=17
4a#
4b
4cc#
4f#
=18
4dd
2dd
4dd
=19
4cc#
4b
4a
4g
=20
2.f#
8d
8e
=21
4f#
4g
4a
4dd
=22
4.dd
8dd
4b
4b
=23
4a
4a
4.cc#
8dd
=24
1dd
==|!
*-
